!!!RNB: m.95, S, a dashed slur is needed
!!!RNB: m.118, B, two syllables per one note need to be checked
!!!COM: Gaspar van Weerbeke
!!!CDT: ~1450-~1517
!!!OPR: Missa Et trop penser
!!!OTL: Gloria
!!!AGN: Mass
!!!SCT: Gas0202b
!!!SCA: Gas0202b
!!!voices: 4
**kern	**text	**kern	**text	**kern	**text	**kern	**text
*part4	*part4	*part3	*part3	*part2	*part2	*part1	*part1
*staff4	*staff4	*staff3	*staff3	*staff2	*staff2	*staff1	*staff1
*I"Bassus	*	*I"Tenor	*	*I"Altus	*	*I"Superius	*
*I'B	*	*I'T	*	*I'A	*	*I'S	*
*clefF4	*	*clefGv2	*	*clefGv2	*	*clefG2	*
*k[b-]	*	*k[b-]	*	*k[b-]	*	*k[b-]	*
*M3/2	*	*M3/2	*	*M3/2	*	*M3/2	*
*met(O)	*	*met(O)	*	*met(O)	*	*met(O)	*
=1	=1	=1	=1	=1	=1	=1	=1
2%3r	.	2%3r	.	1.G	Et	1g	Et
.	.	.	.	.	.	4d	in
.	.	.	.	.	.	4e	.
=2	=2	=2	=2	=2	=2	=2	=2
1.r	.	1.r	.	1G	in	4d	.
.	.	.	.	.	.	2g	ter-
.	.	.	.	.	.	4e	.
.	.	.	.	2A	ter-	2f#i	-ra
=3	=3	=3	=3	=3	=3	=3	=3
1.r	.	1.r	.	4.G	-ra	2g	pax
.	.	.	.	8A	.	.	.
.	.	.	.	4B-y	.	2r	.
.	.	.	.	4c	.	.	.
.	.	.	.	4B-y	pax	2g	ho-
.	.	.	.	4G	.	.	.
=4	=4	=4	=4	=4	=4	=4	=4
1.r	.	1.r	.	2d	ho-	4a	.
.	.	.	.	.	.	2b-y	-mi-
.	.	.	.	4d	-mi-	.	.
.	.	.	.	4d	-ni-	4a	.
.	.	.	.	2e-i	-bus	4.g	-ni-
.	.	.	.	.	.	8e-j	.
!!LO:LB:g=original
=5	=5	=5	=5	=5	=5	=5	=5
1.r	.	1.r	.	4d	bo-	2f	-bus
.	.	.	.	4.f	.	.	.
.	.	.	.	.	.	2B-y	.
.	.	.	.	8e-i	.	.	.
.	.	.	.	4d	.	.	.
.	.	.	.	2c	-ne	2e-i	bo-
=6	=6	=6	=6	=6	=6	=6	=6
1.r	.	1.r	.	4.B-y	vo-	4d	-ne
.	.	.	.	.	.	2f	vo-
.	.	.	.	8A	.	.	.
.	.	.	.	4F	.	.	.
.	.	.	.	2B-y	.	4d	.
.	.	.	.	.	.	2c	.
.	.	.	.	4e-i	.	.	.
=7	=7	=7	=7	=7	=7	=7	=7
1.r	.	1.r	.	4d	-lun-	4B-y	-lun-
.	.	.	.	4B-y	.	2b-y	-ta-
.	.	.	.	2c	-ta-	.	.
.	.	.	.	.	.	4a	.
.	.	.	.	2B-y	-tis.	2b-y	-tis.
=8	=8	=8	=8	=8	=8	=8	=8
1.r	.	1.r	.	2r	.	4a	Lau-
.	.	.	.	.	.	4a	-da-
.	.	.	.	2d	Lau-	4a	-mus
.	.	.	.	.	.	2a	te,
.	.	.	.	4d	-da-	.	.
.	.	.	.	4d	-mus	[4b-y	Be-
=9	=9	=9	=9	=9	=9	=9	=9
1.r	.	1.r	.	2d	te,	4b-]	.
.	.	.	.	.	.	4a	-ne-
.	.	.	.	2d	Be-	2f	-di-
.	.	.	.	4e-i	-ne-	4g	-ci-
.	.	.	.	4d	.	4f	.
!!LO:LB:g=original
=10	=10	=10	=10	=10	=10	=10	=10
1.r	.	1.r	.	4f	-di-	4d	.
.	.	.	.	2e-i	-ci-	4.c	.
.	.	.	.	.	.	8d	.
.	.	.	.	2d	-mus	4f	.
.	.	.	.	.	.	2e-i	-mus
.	.	.	.	4c	.	.	.
=11	=11	=11	=11	=11	=11	=11	=11
*	*	*	*	*	*edit	*	*
1.r	.	1.r	.	2d	te,	1d	te,
.	.	.	.	4r	.	.	.
*	*	*	*	*	*Xedit	*	*
.	.	.	.	2d	Ad-	.	.
.	.	.	.	.	.	2r	.
.	.	.	.	4d	-o-	.	.
=12	=12	=12	=12	=12	=12	=12	=12
1.r	.	1.r	.	4f	-ra-	2d	Ad-
.	.	.	.	4f	-mus	.	.
.	.	.	.	2.B-y	te,	4d	-o-
.	.	.	.	.	.	2f	-ra-
.	.	.	.	4A	.	4f	-mus
=13	=13	=13	=13	=13	=13	=13	=13
*	*	*	*	*	*	*lig	*
1.r	.	1.r	.	4B-y	.	2g	te,
.	.	.	.	4G	.	.	.
.	.	.	.	2F	.	2a	.
.	.	.	.	2G	Glo-	4r	.
*	*	*	*	*	*	*Xlig	*
.	.	.	.	.	.	[4b-y	Glo-
=14	=14	=14	=14	=14	=14	=14	=14
1.r	.	1.r	.	4G	-ri-	4b-]	.
.	.	.	.	4F	-fi-	4a	-ri-
.	.	.	.	4.B-y	-ca-	4f	-fi-
.	.	.	.	.	.	2d	-ca-
.	.	.	.	8c	.	.	.
.	.	.	.	2d	.	.	.
.	.	.	.	.	.	[4f	.
!!LO:PB:g=original
=15	=15	=15	=15	=15	=15	=15	=15
1.r	.	1.r	.	4B-y	.	8fL]	.
.	.	.	.	.	.	8e-i	.
.	.	.	.	4.f	.	8d	.
.	.	.	.	.	.	8cJ	.
.	.	.	.	.	.	4B-y	.
.	.	.	.	8e-iL	.	.	.
.	.	.	.	8d	.	4.d	.
.	.	.	.	8cJ	.	.	.
.	.	.	.	4.B-y	.	.	.
.	.	.	.	.	.	8e-iL	.
.	.	.	.	.	.	8f	.
.	.	.	.	8A	.	8gJ	.
=16	=16	=16	=16	=16	=16	=16	=16
1.r	.	1.r	.	4G	.	4b-y	.
.	.	.	.	4F	.	2a	.
*	*	*	*	*lig	*	*	*
.	.	.	.	2G	-mus	.	.
.	.	.	.	.	.	2g	.
.	.	.	.	2A	.	.	.
.	.	.	.	.	.	4f#i	-mus
*	*	*	*	*Xlig	*	*	*
=17	=17	=17	=17	=17	=17	=17	=17
2GG	Gra-	1.r	.	1G	te.	2g	te.
4.GG	-ti-	.	.	.	.	4r	.
.	.	.	.	.	.	4g	Gra-
8AA	.	.	.	.	.	.	.
4BB-y	.	.	.	2r	.	4g	-ti-
4C	.	.	.	.	.	4g	-as
=18	=18	=18	=18	=18	=18	=18	=18
2GG	-as	1.G	Gra-	2d	Gra-	2b-y	a-
2C	a-	.	.	2.e-i	.	4g	-gi-
.	.	.	.	.	.	4g	-mus
4C	-gi-	.	.	.	.	2e-i	ti-
4C	-mus	.	.	4c	-ti-	.	.
=19	=19	=19	=19	=19	=19	=19	=19
*	*	*lig	*	*	*	*	*
4.BB-y	ti-	[1.B-y	-ti-	4.d	-as	4.f	-bi,
8C	.	.	.	8c	.	8e-i	.
4D	.	.	.	8B-yL	.	8dL	.
.	.	.	.	8AJ	.	8cJ	.
4E-i	.	.	.	4G	.	4B-y	.
4D	.	.	.	4F	.	4r	.
*	*	*	*	*	*	*	*edit
4E-i	.	.	.	4G	a-	[4b-y	gra-
!!LO:LB:g=original
=20	=20	=20	=20	=20	=20	=20	=20
2BB-y	-bi,	1.B-_	.	4F	-gi-	8b-L]	.
.	.	.	.	.	.	8ccJ	.
.	.	.	.	4D	-mus	4.dd	.
4r	.	.	.	4.G	ti-	.	.
.	.	.	.	.	.	8ccL	.
*	*edit	*	*	*	*	*	*
4.E-i	gra-	.	.	.	.	8b-y	.
.	.	.	.	8A	.	8aJ	.
.	.	.	.	4.B-y	.	2g	-ti-
8F	.	.	.	.	.	.	.
[4G	.	.	.	.	.	.	.
.	.	.	.	8c	.	.	.
=21	=21	=21	=21	=21	=21	=21	=21
8GL]	.	1.B-]	.	4d	-bi,	4b-y	-as
8FJ	.	.	.	.	.	.	.
*	*	*	*	*	*edit	*	*
2E-i	.	.	.	2.e-X	a-	2g	a-
8DL	-ti-	.	.	.	.	8fL	.
8CJ	.	.	.	.	.	8e-iJ	.
2BB-y	-as	.	.	2f	-gi-	2d	-gi-
=22	=22	=22	=22	=22	=22	=22	=22
2C	a-	1.G	.	4e-i	-mus	2c	-mus
.	.	.	.	4.g	ti-	.	.
2E-i	.	.	.	.	.	4r	.
.	.	.	.	8fL	.	.	.
.	.	.	.	8e-i	.	4.cc	ti-
.	.	.	.	8dJ	.	.	.
4E-i	-gi-	.	.	2c	.	.	.
.	.	.	.	.	.	8b-yL	.
4E-i	-mus	.	.	.	.	8a	.
.	.	.	.	.	.	8gJ	.
=23	=23	=23	=23	=23	=23	=23	=23
1D	ti-	1.A	.	2.d	.	4.f#X	.
.	.	.	.	.	.	8e	.
.	.	.	.	.	.	4f#i	.
.	.	.	.	8cL	.	2g	.
.	.	.	.	8B-yJ	.	.	.
2D	-bi	.	.	2A	-bi,	.	.
.	.	.	.	.	.	4f#i	.
*	*	*Xlig	*	*	*	*	*
!!LO:LB:g=original
=24	=24	=24	=24	=24	=24	=24	=24
*	*Xedit	*	*	*	*Xedit	*	*
4BB-y	pro-	1B-y	-as	2G	pro-	2g	-bi
4E-i	.	.	.	.	.	.	.
4D	-pter	.	.	4F	-pter	4r	.
*	*	*	*	*	*	*	*Xedit
4BB-y	.	.	.	2B-y	ma-	4d	pro-
2C	ma-	2r	.	.	.	2e-i	-pter
.	.	.	.	4A	.	.	.
=25	=25	=25	=25	=25	=25	=25	=25
2GG	-gnam	1.r	.	4.B-y	-gnam	4.d	ma-
.	.	.	.	8c	.	8e-i	.
4r	.	.	.	4.d	.	8fL	.
.	.	.	.	.	.	8gJ	.
4.D	glo-	.	.	.	.	2a	.
.	.	.	.	8e-i	.	.	.
.	.	.	.	2f	.	.	.
8E-i	.	.	.	.	.	.	.
4F	.	.	.	.	.	8gL	.
.	.	.	.	.	.	8fJ	.
=26	=26	=26	=26	=26	=26	=26	=26
4BB-y	.	1.r	.	4d	glo-	4b-y	-gnam
2AA-i	.	.	.	4.e-i	.	4.cc	glo-
.	.	.	.	8dL	.	8f	.
4BB-y	.	.	.	8c	.	2b-y	.
.	.	.	.	8B-yJ	.	.	.
2F	-ri-	.	.	2c	-ri-	.	.
.	.	.	.	.	.	4a	-ri-
=27	=27	=27	=27	=27	=27	=27	=27
*	*	*lig	*	*	*	*	*
2BB-y	-am,	1.d	a-	4.B-y	-am,	2.b-y	-am
.	.	.	.	8A	.	.	.
*	*edit	*	*	*	*	*	*
4.BB-y	pro-	.	.	4F	.	.	.
.	.	.	.	2B-y	.	8aL	.
8C	.	.	.	.	.	8gJ	.
8DL	.	.	.	.	.	4.f	.
8E-iJ	.	.	.	.	.	.	.
*	*	*	*	*	*edit	*	*
[4F	-pter	.	.	[4A	pro-	.	.
.	.	.	.	.	.	8g	.
!!LO:LB:g=original
=28	=28	=28	=28	=28	=28	=28	=28
*	*	*col	*	*	*	*	*
8FL]	.	1c	-gi-	8AL]	.	4.a	.
8E-iJ	.	.	.	8B-yJ	.	.	.
4.C	.	.	.	4.c	-pter	.	.
.	.	.	.	.	.	8g	.
.	.	.	.	.	.	8eL	.
8D	.	.	.	8B-y	.	8fJ	.
4.E-i	ma-	.	.	4.G	.	4.g	.
.	.	[2B-y	.	.	.	.	.
8D	.	.	.	8A	.	8f	.
[4BB-y	.	.	.	[4B-y	ma-	[4d	.
*	*	*Xlig	*	*	*	*	*
=29	=29	=29	=29	=29	=29	=29	=29
8BB-L]	.	2B-]	.	8B-L]	.	8dL]	.
8CJ	.	.	.	8AJ	.	8eJ	.
4.D	-gnam	.	.	4.F	.	4.f	.
.	.	1A	-mus	.	.	.	.
*	*	*Xcol	*	*	*	*	*
8C	.	.	.	8G	.	8e	.
4.AA	.	.	.	4.A	-gnam	4.c	.
8BB-y	.	.	.	8GL	.	8d	.
[4C	.	.	.	8E	.	[4e	.
.	.	.	.	8FJ	.	.	.
=30	=30	=30	=30	=30	=30	=30	=30
*	*	*lig	*	*	*	*	*
4C]	.	1.G	ti-	4.G	glo-	8eL]	.
.	.	.	.	.	.	8fJ	.
2GG	glo-	.	.	.	.	4.g	.
.	.	.	.	8A	.	.	.
.	.	.	.	4B-y	.	.	.
.	.	.	.	.	.	8fL	.
4.C	-ri-	.	.	4c	.	8e	.
.	.	.	.	.	.	8dJ	.
*	*	*	*	*	*	*	*edit
.	.	.	.	2c	-ri-	4.e	tu-
8BB-y	.	.	.	.	.	.	.
4C	.	.	.	.	.	.	.
.	.	.	.	.	.	8d	.
=31	=31	=31	=31	=31	=31	=31	=31
2D	-am	1.F	-bi	4A	-am	2.f	-am,
*	*	*	*	*	*Xedit	*	*
.	.	.	.	2d	tu-	.	.
4.D	tu-	.	.	.	.	.	.
.	.	.	.	2B-y	.	8e-iL	.
8E-i	.	.	.	.	.	8dJ	.
2F	-am,	.	.	.	.	2c	.
.	.	.	.	4A	.	.	.
*	*	*Xlig	*	*	*	*	*
!!LO:PB:g=original
=32	=32	=32	=32	=32	=32	=32	=32
*	*	*	*	*	*edit	*	*
4G	pro-	2r	.	4.B-y	-am,	4r	.
2B-y	-pter	.	.	.	.	4g	pro-
.	.	.	.	8c	.	.	.
.	.	2r	.	2d	.	2b-y	-pter
4G	ma-	.	.	.	.	.	.
4B-y	-gnam	4G	pro-	4r	.	2g	ma-
4E-i	glo-	[4B-y	-pter	4e-i	pro-	.	.
=33	=33	=33	=33	=33	=33	=33	=33
4D	.	4B-]	.	4f	-pter	4f	-gnam
4.E-i	-ri-	2G	ma-	4e-i	ma-	4g	.
.	.	.	.	4g	-gnam	4b-y	glo-
8D	.	.	.	.	.	.	.
4C	.	4A	.	8fL	.	4cc	-ri-
.	.	.	.	8e-iJ	.	.	.
4.BB-y	-am	4B-y	-gnam	4d	.	4.dd	-am
.	.	[4d	glo-	[4f	glo-	.	.
8C	.	.	.	.	.	8cc	.
=34	=34	=34	=34	=34	=34	=34	=34
8DL	.	4d]	.	2f]	.	4b-y	.
8E-iJ	.	.	.	.	.	.	.
4F	.	4c	-ri-	.	.	2a	.
4G	.	4B-y	-am	4B-y	-ri-	.	.
*	*	*	*	*	*	*	*Xedit
4E-i	.	4G	.	4c	-am	2g	tu-
*	*Xedit	*	*	*	*	*	*
2D	tu-	2A	tu-	2d	tu-	.	.
.	.	.	.	.	.	4f#i	.
=35	=35	=35	=35	=35	=35	=35	=35
*	*	*	*	*	*Xedit	*	*
1GG	-am.	1G	-am.	2d	-am.	2g	-am.
.	.	.	.	2r	.	2r	.
2r	.	2r	.	2B-y	Do-	2d	Do-
!!LO:LB:g=original
=36	=36	=36	=36	=36	=36	=36	=36
1.r	.	1.r	.	4B-y	-mi-	4d	-mi-
.	.	.	.	2c	-ne	2e-i	-ne
.	.	.	.	4G	De-	4d	De-
.	.	.	.	4F	-us,	2d	-us,
.	.	.	.	4G	.	.	.
=37	=37	=37	=37	=37	=37	=37	=37
1.r	.	1.r	.	4D	Rex	4d	Rex
.	.	.	.	4.d	ce-	4.f	ce-
.	.	.	.	8cL	.	8e-iL	.
.	.	.	.	8B-y	.	8d	.
.	.	.	.	8AJ	.	8cJ	.
.	.	.	.	4B-y	.	4d	.
.	.	.	.	[4c	.	[4e-i	.
=38	=38	=38	=38	=38	=38	=38	=38
2r	.	1.r	.	8cL]	.	8e-L]	.
.	.	.	.	8B-y	.	8d	.
.	.	.	.	8A	.	8c	.
.	.	.	.	8GJ	.	8B-yJ	.
2r	.	.	.	4f	-le-	4A	.
.	.	.	.	4d	.	2b-y	-le-
2F	Do-	.	.	2c	.	.	.
.	.	.	.	.	.	4a	.
=39	=39	=39	=39	=39	=39	=39	=39
*	*	*lig	*	*	*	*	*
1G	.	[1.d	De-	1B-y	-stis,	1b-y	-stis,
*	*	*	*	*	*edit	*	*
2D	-mi-	.	.	4A	De-	2r	.
.	.	.	.	[4B-y	.	.	.
!!LO:LB:g=original
=40	=40	=40	=40	=40	=40	=40	=40
2GG	-ne	1.d_	.	4B-]	.	2b-y	De-
.	.	.	.	8AL	.	.	.
.	.	.	.	8GJ	.	.	.
4r	.	.	.	4F	.	4a	.
4GG	De-	.	.	4G	.	4g	.
4D	-us,	.	.	4A	.	4f	.
4GG	.	.	.	[4G	-us	[4b-y	.
=41	=41	=41	=41	=41	=41	=41	=41
4G	Rex	1.d_	.	4G]	.	4b-]	.
2D	.	.	.	4.d	Pa-	2a	-us
.	.	.	.	8c	.	.	.
4GG	.	.	.	4B-y	.	4g	Pa-
4D	ce-	.	.	4A	.	4f	.
4G	.	.	.	4G	.	4b-y	.
=42	=42	=42	=42	=42	=42	=42	=42
4F	-le-	1.d]	.	4A	.	4a	.
4G	.	.	.	4B-y	.	2g	.
2D	.	.	.	2A	.	.	.
.	.	.	.	.	.	4f	.
2GG	-stis,	.	.	2G	.	4b-y	.
.	.	.	.	.	.	8aL	.
.	.	.	.	.	.	8gJ	.
=43	=43	=43	=43	=43	=43	=43	=43
4r	.	[1.A	-us	2D	-ter,	2f	-ter,
*	*edit	*	*	*	*	*	*
2D	De-	.	.	.	.	.	.
.	.	.	.	4r	.	4r	.
4D	-us	.	.	2d	Pa-	2f	De-
4D	Pa-	.	.	.	.	.	.
4D	-ter	.	.	4d	-ter	4f	-us
!!LO:LB:g=original
=44	=44	=44	=44	=44	=44	=44	=44
2D	o-	1.A]	.	4d	o-	4f	Pa-
*	*	*Xlig	*	*	*	*	*

.	.	.	.	4d	-mni-	4f	-ter
*	*	*	*	*	*	*	*edit
4.D	-mni-	.	.	2d	-po-	4.f	o-
8E	.	.	.	.	.	8g	.
2F	-po-	.	.	2c	-tens,	2a	-mni-
=45	=45	=45	=45	=45	=45	=45	=45
2G	-tens,	1B-y	Pa-	1.r	.	4d	.
.	.	.	.	.	.	4.g	-po-
2r	.	.	.	.	.	.	.
.	.	.	.	.	.	8fL	.
.	.	.	.	.	.	8e	.
.	.	.	.	.	.	8dJ	.
*	*Xedit	*	*	*	*	*	*
2A	De-	2c	-ter	.	.	2e	.
=46	=46	=46	=46	=46	=46	=46	=46
*	*	*lig	*	*	*	*	*
*	*	*	*	*	*Xedit	*	*
4.B-y	-us	[1.d	om-	2.f	De-	2d	-tens,
8A	.	.	.	.	.	.	.
4F	.	.	.	.	.	4r	.
2G	Pa-	.	.	4.d	.	4.dd	De-
.	.	.	.	8e	.	8cc	.
4F	.	.	.	4f	.	4a	.
=47	=47	=47	=47	=47	=47	=47	=47
2G	-ter	1.d]	.	4.B-y	-us	4.b-y	-us
.	.	.	.	8c	.	8a	.
*	*edit	*	*	*	*	*	*
4D	o-	.	.	8dL	.	4f	.
.	.	.	.	8c	.	.	.
2G	-mni-	.	.	8B-y	.	4.b-y	Pa-
.	.	.	.	8AJ	.	.	.
.	.	.	.	4G	.	.	.
.	.	.	.	.	.	8a	.
4G	-po-	.	.	4B-y	.	4b-y	.
!!LO:PB:g=original
=48	=48	=48	=48	=48	=48	=48	=48
*	*	*col	*	*	*	*	*
4A	-tens,	1c	.	4.F	Pa-	4cc	.
4.F	de-	.	.	.	.	4.a	.
.	.	.	.	8G	.	.	.
.	.	.	.	4A	.	.	.
8E	.	.	.	.	.	8gL	.
4F	.	.	.	4A	-ter	8f	.
.	.	.	.	.	.	8eJ	.
4G	-us	[2B-y	.	4B-y	.	2d	-ter
[4GG	pa-	.	.	[4d	.	.	.
=49	=49	=49	=49	=49	=49	=49	=49
*	*	*	*	*	*	*	*Xedit
8GGL]	.	2B-]	.	4d]	.	2dd	om-
*	*	*Xlig	*	*	*	*	*
8AAJ	.	.	.	.	.	.	.
4BB-y	.	.	.	4d	om-	.	.
*	*	*lig	*	*	*	*	*
2C	-ter	1G	-ni-	4c	.	4ee-i	.
*	*	*Xcol	*	*	*	*	*
.	.	.	.	4.e-X	-ni-	4.cc	-ni-
*	*Xedit	*	*	*	*	*	*
2E-X	om-	.	.	.	.	.	.
.	.	.	.	8dL	.	8b-yL	.
.	.	.	.	8B-y	.	8a	.
.	.	.	.	8cJ	.	8gJ	.
=50	=50	=50	=50	=50	=50	=50	=50
4D	-ni-	1.A	.	2d	.	4f	.
4.F	-pot-	.	.	.	.	4.a	.
.	.	.	.	2r	.	.	.
16E-iLL	.	.	.	.	.	16gLL	.
16DJJ	.	.	.	.	.	16fJJ	.
4C	.	.	.	.	.	4e	.
2D	.	.	.	2d	-pot-	2f#i	-pot-
*	*	*Xlig	*	*	*	*	*
=51	=51	=51	=51	=51	=51	=51	=51
[1.GG	.ens.	1.G	-pot-	[1.d	ens.	[1.g	ens.
=52	=52	=52	=52	=52	=52	=52	=52
0GG]	.	0G	-tens.	0d]	.	0g]	.
!!LO:LB:g=original
=53||	=53||	=53||	=53||	=53||	=53||	=53||	=53||
*M2/2	*	*M2/2	*	*M2/2	*	*M2/2	*
*met(C|)	*	*met(C|)	*	*met(C|)	*	*met(C|)	*
[1G	-Do-	1r	.	1G	-Do-	1r	.
=54	=54	=54	=54	=54	=54	=54	=54
*col	*	*	*	*	*	*	*
2.G]	.	1r	.	2.B-y	.	1r	.
8FL	.	.	.	8AL	.	.	.
8EJ	.	.	.	8GJ	.	.	.
*Xcol	*	*	*	*	*	*	*
=55	=55	=55	=55	=55	=55	=55	=55
*lig	*	*	*	*lig	*	*	*
2F	-mi-	1r	.	2A	-mi-	1r	.
2G	.	.	.	2B-y	.	.	.
*Xlig	*	*	*	*Xlig	*	*	*
=56	=56	=56	=56	=56	=56	=56	=56
1B-y	-ne	1r	.	2G	-ne	1r	.
.	.	.	.	4r	.	.	.
.	.	.	.	[4d	Fi-	.	.
=57	=57	=57	=57	=57	=57	=57	=57
2A	.	1r	.	4d]	.	1r	.
.	.	.	.	4c	-li	.	.
2G	.	.	.	4B-y	u-	.	.
.	.	.	.	8AL	-ni-	.	.
.	.	.	.	8GJ	.	.	.
=58	=58	=58	=58	=58	=58	=58	=58
*lig	*	*	*	*	*	*	*
2D	Fi-	1r	.	4.A	-ge-	1r	.
.	.	.	.	8B-y	.	.	.
2F	.	.	.	4A	.	.	.
.	.	.	.	[4d	.	.	.
!!LO:LB:g=original
=59	=59	=59	=59	=59	=59	=59	=59
1E-j	.	1r	.	4d]	.	1r	.
.	.	.	.	8cL	.	.	.
.	.	.	.	8B-yJ	.	.	.
.	.	.	.	8cL	-ni-	.	.
.	.	.	.	8B-y	.	.	.
.	.	.	.	8A	.	.	.
.	.	.	.	8GJ	.	.	.
*Xlig	*	*	*	*	*	*	*
=60	=60	=60	=60	=60	=60	=60	=60
2D	-li	1r	.	2F	-te,	1r	.
*	*	*	*	*	*edit	*	*
4r	.	.	.	4D	u-	.	.
[4D	u-	.	.	[4F	.	.	.
=61	=61	=61	=61	=61	=61	=61	=61
4D]	.	1r	.	4F]	.	1r	.
4BB-y	.	.	.	4G	.	.	.
2C	-ni-	.	.	2E-i	-ni-	.	.
=62	=62	=62	=62	=62	=62	=62	=62
4D	-ge-	1r	.	2D	-ge-	1r	.
4F	.	.	.	.	.	.	.
4G	.	.	.	4E	.	.	.
[4A	.	.	.	[4F	.	.	.
=63	=63	=63	=63	=63	=63	=63	=63
4A]	.	1r	.	4F]	.	1r	.
8GL	.	.	.	8EL	.	.	.
8FJ	.	.	.	8DJ	.	.	.
4G	.	.	.	4E	.	.	.
[4D	.	.	.	4F	.	.	.
!!LO:LB:g=original
=64	=64	=64	=64	=64	=64	=64	=64
4D]	.	1r	.	4D	.	1r	.
4BB-y	.	.	.	2G	-ni-	.	.
2AA	-ni-	.	.	.	.	.	.
.	.	.	.	4F#i	.	.	.
=65	=65	=65	=65	=65	=65	=65	=65
2GG	-te,	1r	.	4G	-te,	2d	-Do-
.	.	.	.	4B-y	Do-	.	.
2r	.	.	.	4c	-mi-	4e	-mi-
.	.	.	.	[4d	-ne	[4f	-ne
=66	=66	=66	=66	=66	=66	=66	=66
1r	.	1r	.	4d]	.	4f]	.
.	.	.	.	8cL	.	8eL	.
.	.	.	.	8B-yJ	.	8dJ	.
.	.	.	.	4c	.	4e	.
.	.	.	.	4d	.	4f	.
=67	=67	=67	=67	=67	=67	=67	=67
2r	.	1r	.	4B-y	Fi-	4d	.
.	.	.	.	4c	-li	2g	Fi-
*	*edit	*	*	*	*	*	*
2D	u-	.	.	2A	u-	.	.
.	.	.	.	.	.	4f#i	.
=68	=68	=68	=68	=68	=68	=68	=68
4.E-i	-ni-	1r	.	2G	-ni-	2g	-li
8D	.	.	.	.	.	.	.
[2BB-y	-ge-	.	.	[2d	-ge-	2r	.
!!LO:LB:g=original
=69	=69	=69	=69	=69	=69	=69	=69
4BB-]	.	1r	.	4d]	.	2.b-y	u-
4BB-y	-ni-	.	.	4d	-ni-	.	.
2BB-y	-te	.	.	2d	-te,	.	.
.	.	.	.	.	.	4b-y	-ni-
=70	=70	=70	=70	=70	=70	=70	=70
*	*	*	*	*	*Xedit	*	*
4r	.	1r	.	[1B-y	Je-	4.b-y	-ge-
*	*Xedit	*	*	*	*	*	*
4E-i	Je-	.	.	.	.	.	.
.	.	.	.	.	.	8a	.
4D	.	.	.	.	.	4f	.
[4E-i	-su	.	.	.	.	[4g	.
=71	=71	=71	=71	=71	=71	=71	=71
*	*	*	*	*col	*	*	*
4E-]	.	1r	.	2.B-]	.	4g]	.
8DL	.	.	.	.	.	8fL	.
8CJ	.	.	.	.	.	8e-iJ	.
[2BB-y	Chri-	.	.	.	.	4d	.
.	.	.	.	4c	.	[4f	-ni-
*	*	*	*	*Xcol	*	*	*
=72	=72	=72	=72	=72	=72	=72	=72
2BB-]	.	1r	.	4d	-su	8fL]	.
.	.	.	.	.	.	8e-i	.
.	.	.	.	4e-i	.	8d	.
.	.	.	.	.	.	8cJ	.
2BB-y	-ste.	.	.	4f	.	4B-y	-te
.	.	.	.	4g	.	4b-y	Je-
=73	=73	=73	=73	=73	=73	=73	=73
1r	.	1r	.	4f	.	4a	-su
.	.	.	.	2e-i	.	2g	Chri-
.	.	.	.	[4d	Chri-	4f	.
!!LO:PB:g=original
=74	=74	=74	=74	=74	=74	=74	=74
2r	.	1r	.	4d]	.	2e-i	-ste.
.	.	.	.	4c	.	.	.
[2D	Do-	.	.	2d	-ste,	2r	.
=75	=75	=75	=75	=75	=75	=75	=75
4D]	.	1r	.	2r	.	8dL	Do-
.	.	.	.	.	.	8e	.
4E	-mi-	.	.	.	.	8f	.
.	.	.	.	.	.	8gJ	.
*	*	*	*	*	*edit	*	*
4F	-ne	.	.	[2d	Chri-	4a	.
4G	.	.	.	.	.	4b-y	-mi-
=76	=76	=76	=76	=76	=76	=76	=76
4F	De-	1r	.	2d]	.	4a	-ne
4D	.	.	.	.	.	2dd	De-
2A	-us,	.	.	2e	-ste.	.	.
.	.	.	.	.	.	4cc#i	.
=77	=77	=77	=77	=77	=77	=77	=77
1r	.	1r	.	4r	.	2.dd	-us,
*	*	*	*	*	*Xedit	*	*
.	.	.	.	2d	Do-	.	.
.	.	.	.	4e	-mi-	4cc	.
=78	=78	=78	=78	=78	=78	=78	=78
1r	.	1r	.	4f	-ne	4a	.
*	*	*	*	*	*	*	*edit
.	.	.	.	4.g	De-	4.b-y	A-
.	.	.	.	8fL	.	8a	.
.	.	.	.	8e-i	-us,	[4cc	.
.	.	.	.	8dJ	.	.	.
!!LO:LB:g=original
=79	=79	=79	=79	=79	=79	=79	=79
2r	.	1r	.	2c	A-	8ccL]	.
.	.	.	.	.	.	8b-y	.
.	.	.	.	.	.	8a	.
.	.	.	.	.	.	8gJ	.
*	*edit	*	*	*	*	*	*
2D	A-	.	.	2d	-gnus	4.f#i	-gnus
.	.	.	.	.	.	8e	.
=80	=80	=80	=80	=80	=80	=80	=80
2.C	.	1r	.	2.e-i	De-	2.g	De-
4D	.	.	.	4d	.	4f#i	.
=81	=81	=81	=81	=81	=81	=81	=81
2D	-gnus,	1r	.	2d	-i,	1f#X	-i,
*	*	*	*	*	*edit	*	*
2r	.	.	.	4.D	A-	.	.
.	.	.	.	8E	.	.	.
=82	=82	=82	=82	=82	=82	=82	=82
*	*	*	*	*	*	*	*Xedit
2r	.	1r	.	4F	.	2d	A-
.	.	.	.	2G	.	.	.
4.C	A-	.	.	.	.	4.e	.
.	.	.	.	4A	.	.	.
8D	.	.	.	.	.	8f	.
=83	=83	=83	=83	=83	=83	=83	=83
4E	.	1r	.	4G	.	2g	.
4C	.	.	.	2A	-gnus	.	.
4.D	-gnus	.	.	.	.	4.f	-gnus
.	.	.	.	4B-y	.	.	.
8E	.	.	.	.	.	8g	.
=84	=84	=84	=84	=84	=84	=84	=84
4F	.	1r	.	4A	.	2a	.
4D	.	.	.	2B-y	De-	.	.
4.E-X	De-	.	.	.	.	4.g	De-
.	.	.	.	4c	.	.	.
8F	.	.	.	.	.	8a	.
!!LO:LB:g=original
=85	=85	=85	=85	=85	=85	=85	=85
4G	.	1r	.	4B-y	.	2b-y	.
4E-i	.	.	.	2c	.	.	.
*	*	*	*	*	*	*lig	*
4.F	-i,	.	.	.	.	2a	.
.	.	.	.	[4d	-i,	.	.
8E-i	.	.	.	.	.	.	.
=86	=86	=86	=86	=86	=86	=86	=86
2D	.	1r	.	8dL]	.	2f	.
.	.	.	.	8c	.	.	.
.	.	.	.	8B-y	.	.	.
.	.	.	.	8AJ	.	.	.
*	*	*	*	*	*	*Xlig	*
4r	.	.	.	4G	.	2g	-i,
*	*Xedit	*	*	*	*Xedit	*	*
[4G	Fi-	.	.	[4e-X	Fi-	.	.
=87	=87	=87	=87	=87	=87	=87	=87
8GL]	.	1r	.	8e-L]	.	4r	.
8F	.	.	.	8d	.	.	.
8E-i	.	.	.	8c	.	2g	Fi-
8DJ	.	.	.	8B-yJ	.	.	.
2E-i	-li-	.	.	2c	-li-	.	.
.	.	.	.	.	.	8fL	-li-
.	.	.	.	.	.	8eJ	.
=88	=88	=88	=88	=88	=88	=88	=88
2.D	-us	1r	.	4.d	-us	2.f	-us
.	.	.	.	8c	.	.	.
.	.	.	.	[2A	.	.	.
4C	.	.	.	.	.	4e	.
=89	=89	=89	=89	=89	=89	=89	=89
4D	.	1r	.	4A]	.	4f	.
4E-i	.	.	.	4G	.	2g	Pa-
2D	Pa-	.	.	2A	Pa-	.	.
.	.	.	.	.	.	4f#i	.
=90	=90	=90	=90	=90	=90	=90	=90
0GG	-tris.	0r	.	0G	-tris.	0g	-tris.
!!LO:LB:g=original
=91||	=91||	=91||	=91||	=91||	=91||	=91||	=91||
*M2/2	*	*M2/2	*	*M2/2	*	*M2/2	*
*met(C|)	*	*met(C|)	*	*met(C|)	*	*met(C|)	*
1G	Qui	1r	.	1r	.	1r	.
=92	=92	=92	=92	=92	=92	=92	=92
4G	tol-	1r	.	1d	Qui	1r	.
2G	-lis	.	.	.	.	.	.
8FL	.	.	.	.	.	.	.
8EJ	.	.	.	.	.	.	.
=93	=93	=93	=93	=93	=93	=93	=93
2D	.	1d	Qui	4d	tol-	1r	.
.	.	.	.	2d	-lis	.	.
2G	pec-	.	.	.	.	.	.
.	.	.	.	8cL	.	.	.
.	.	.	.	8B-yJ	.	.	.
=94	=94	=94	=94	=94	=94	=94	=94
2F	-ca-	4d	tol-	2A	.	1a	Qui
.	.	2d	-lis	.	.	.	.
2D	-ta	.	.	2d	pec-	.	.
.	.	8cL	.	.	.	.	.
.	.	8B-yJ	.	.	.	.	.
=95	=95	=95	=95	=95	=95	=95	=95
*	*	*lig	*	*	*	*	*
2.F	mun-	[1A	.	2c	-ca-	4a	tol-
.	.	.	.	.	.	(4a	-lis
.	.	.	.	2A	-ta	4a)	.
4G	.	.	.	.	.	8gL	.
.	.	.	.	.	.	8fJ	.
=96	=96	=96	=96	=96	=96	=96	=96
*lig	*	*	*	*	*	*	*
2A	.	1A]	.	4c	mun-	2e	.
.	.	.	.	8dL	.	.	.
.	.	.	.	8eJ	.	.	.
2F	.	.	.	2f	.	2a	pec-
*Xlig	*	*	*	*	*	*	*
!!LO:LB:g=original
=97	=97	=97	=97	=97	=97	=97	=97
2G	-di,	1B-y	.	2d	.	2g	-ca-
4r	.	.	.	4.B-y	.	8gL	-ta
.	.	.	.	.	.	8f	.
4G	mi-	.	.	.	.	8e	.
.	.	.	.	8G	.	8dJ	.
*	*	*Xlig	*	*	*	*	*
=98	=98	=98	=98	=98	=98	=98	=98
*	*	*lig	*	*	*	*	*
4.C	-se-	[1c	pec-	2G	-di,	4.e	.
8D	.	.	.	.	.	8f	.
4E	.	.	.	2r	.	4g	.
[4F	-re-	.	.	.	.	[4a	mun-
=99	=99	=99	=99	=99	=99	=99	=99
4F]	.	1c]	.	4.A	mi-	4a]	.
8EL	.	.	.	.	.	8gL	.
8DJ	.	.	.	8B-y	.	8fJ	.
2A	.	.	.	2c	-se-	2e	-di,
=100	=100	=100	=100	=100	=100	=100	=100
2.D	-re	[1d	.	4.A	-re-	4.d	mi-
.	.	.	.	8G	.	8e	.
.	.	.	.	4F	.	8fL	.
.	.	.	.	.	.	8gJ	.
4E	.	.	.	4E	.	[4a	-se-
=101	=101	=101	=101	=101	=101	=101	=101
4F	.	2d]	.	2D	-re	4a]	.
*	*	*Xlig	*	*	*	*	*
4G	.	.	.	.	.	4b-y	.
2A	no-	[2c	-ca-	4r	.	4cc	.
.	.	.	.	[4F	no-	[4a	-re-
=102	=102	=102	=102	=102	=102	=102	=102
*lig	*	*	*	*	*	*	*
2F	-bis.	2c]	.	8FL]	.	8aL]	.
.	.	.	.	8GJ	.	8g	.
.	.	.	.	4A	.	8f	.
.	.	.	.	.	.	8eJ	.
2G	.	2B-y	-ta	4B-y	.	4d	-re
.	.	.	.	4G	.	[4g	no-
!!LO:PB:g=original
=103	=103	=103	=103	=103	=103	=103	=103
1D	.	1A	mun-	[1d	-bis.	4g]	.
.	.	.	.	.	.	8f#iL	.
.	.	.	.	.	.	8eJ	.
.	.	.	.	.	.	2f#i	.
*Xlig	*	*	*	*	*	*	*
=104	=104	=104	=104	=104	=104	=104	=104
1r	.	1G	-di,	1d]	.	1g	-bis.
=105	=105	=105	=105	=105	=105	=105	=105
2GG	Qui	1r	.	2r	.	1r	.
[2BB-y	tol-	.	.	2D	Qui	.	.
=106	=106	=106	=106	=106	=106	=106	=106
4BB-]	.	1r	.	2.F	tol-	1r	.
4C	.	.	.	.	.	.	.
2D	-lis	.	.	.	.	.	.
.	.	.	.	4G	.	.	.
=107	=107	=107	=107	=107	=107	=107	=107
2r	.	1r	.	2A	-lis	1r	.
[2GG	pec-	.	.	2r	.	.	.
=108	=108	=108	=108	=108	=108	=108	=108
4GG]	.	1r	.	2.D	pec-	1r	.
4AA	.	.	.	.	.	.	.
4BB-y	-ca-	.	.	.	.	.	.
4C	.	.	.	4E	.	.	.
=109	=109	=109	=109	=109	=109	=109	=109
2D	-ta	1r	.	4F	-ca-	1r	.
.	.	.	.	4G	.	.	.
2r	.	.	.	2A	-ta	.	.
!!LO:LB:g=original
=110	=110	=110	=110	=110	=110	=110	=110
2.GG	mun-	1r	.	2r	.	1r	.
.	.	.	.	[2D	mun-	.	.
4AA	.	.	.	.	.	.	.
=111	=111	=111	=111	=111	=111	=111	=111
4BB-y	.	1r	.	4D]	.	1r	.
4C	.	.	.	4E	.	.	.
4D	.	.	.	4F	.	.	.
4E	.	.	.	4G	.	.	.
=112	=112	=112	=112	=112	=112	=112	=112
4F	.	1r	.	4A	.	1r	.
4G	.	.	.	4B-y	.	.	.
2E	.	.	.	4c	.	.	.
.	.	.	.	4d	.	.	.
=113	=113	=113	=113	=113	=113	=113	=113
4D	.	1r	.	4.B-y	.	1r	.
2G	.	.	.	.	.	.	.
.	.	.	.	8G	.	.	.
.	.	.	.	2A	.	.	.
4F	.	.	.	.	.	.	.
=114	=114	=114	=114	=114	=114	=114	=114
4.B-y	.	1r	.	4G	.	1r	.
.	.	.	.	2g	.	.	.
8G	.	.	.	.	.	.	.
2A	-di,	.	.	.	.	.	.
.	.	.	.	4f#i	.	.	.
=115	=115	=115	=115	=115	=115	=115	=115
*M3/2	*	*M3/2	*	*M3/2	*	*M3/2	*
*met(O)	*	*met(O)	*	*met(O)	*	*met(O)	*
1G	sus-	1.r	.	1g	-di,	2dd	Sus-
.	.	.	.	.	.	2dd	-ci-
2D	-ci-	.	.	2f	sus-	2dd	-pe
!!LO:LB:g=original
=116	=116	=116	=116	=116	=116	=116	=116
*	*	*	*edit	*	*	*	*
2D	-pe	2d	Sus-	1f	-ci-	1a	de-
2D	de-	2d	-ci-	.	.	.	.
2F	-pre-	2d	-pe	2f	-pe	2a	-pre-
=117	=117	=117	=117	=117	=117	=117	=117
*	*	*	*	*lig	*	*	*
1F	-ca-	1A	de-	2c	de-	1cc	-ca-
.	.	.	.	2f	.	.	.
*	*	*	*	*Xlig	*	*	*
2C	-ti-	2A	-pre-	2e-j	-pre-	2cc	-ti-
=118	=118	=118	=118	=118	=118	=118	=118
1BB-y	-o- -nem	1B-y	-ca-	2.d	-ca-	1dd	-o-
.	.	.	.	4c	.	.	.
2r	.	2c	-ti-	4A	-ti-	2cc	-nem
.	.	.	.	4F	.	.	.
=119	=119	=119	=119	=119	=119	=119	=119
*lig	*	*	*	*	*	*	*
2BB-y	no-	1d	-o-	1f	-o-	2b-y	no-
1F	.	.	.	.	.	1a	.
.	.	2c	-nem	2f	-nem	.	.
*Xlig	*	*	*	*	*	*	*
=120	=120	=120	=120	=120	=120	=120	=120
1G	.	2B-y	no-	2d	no-	2g	-stram.
.	.	1A	.	2.c	.	2r	.
2F#i	.	.	.	.	.	2r	.
.	.	.	.	4A	.	.	.
=121	=121	=121	=121	=121	=121	=121	=121
1G	-stram.	1.G	-stram.	2B-y	-stram.	2b-y	Qui
.	.	.	.	4d	Qui	2b-y	se-
.	.	.	.	2d	se-	.	.
2GG	Qui	.	.	.	.	2b-y	-des
.	.	.	.	4d	-des	.	.
!!LO:LB:g=original
=122	=122	=122	=122	=122	=122	=122	=122
1.D	se-	1.r	.	1A	ad	2.f	ad
.	.	.	.	.	.	4e	.
.	.	.	.	2B-y	dex-	2d	.
=123	=123	=123	=123	=123	=123	=123	=123
1AA	-des	1.r	.	2c	-te-	2c	dex-
.	.	.	.	1c	-ram	1e	-te-
*	*edit	*	*	*	*	*	*
2AA	ad	.	.	.	.	.	.
=124	=124	=124	=124	=124	=124	=124	=124
*	*	*	*	*	*	*lig	*
1BB-y	dex-	1.r	.	1d	Pa-	2d	-ram
.	.	.	.	.	.	2f	.
*	*	*	*	*	*	*Xlig	*
2C	-te-	.	.	2c	.	2e	.
=125	=125	=125	=125	=125	=125	=125	=125
1D	-ram	1.r	.	2B-y	.	4.d	Pa-
.	.	.	.	.	.	8e	.
.	.	.	.	2.A	.	4f	.
.	.	.	.	.	.	4g	.
2C	.	.	.	.	.	2a	.
.	.	.	.	4G	.	.	.
=126	=126	=126	=126	=126	=126	=126	=126
*lig	*	*	*	*	*	*	*
2BB-y	Pa-	1.r	.	1G	.	2b-y	.
1AA	.	.	.	.	.	2.cc	.
.	.	.	.	2F#i	.	.	.
.	.	.	.	.	.	4a	.
*Xlig	*	*	*	*	*	*	*
=127	=127	=127	=127	=127	=127	=127	=127
*M2/2	*	*M2/2	*	*M2/2	*	*M2/2	*
*met(C|)	*	*met(C|)	*	*met(C|)	*	*met(C|)	*
1GG	-tris,	1G	Mi-	4.G	-tris,	1b-y	.
.	.	.	.	8A	.	.	.
.	.	.	.	4B-y	.	.	.
.	.	.	.	8cL	.	.	.
.	.	.	.	8dJ	.	.	.
!!LO:LB:g=original
=128	=128	=128	=128	=128	=128	=128	=128
*	*Xedit	*	*	*	*	*	*
2.G	mi-	2.B-y	.	2.e-i	mi-	1g	-tris,
4F	.	4A	.	4d	-se-	.	.
=129	=129	=129	=129	=129	=129	=129	=129
4E-i	-se-	4G	-se-	4c	-re-	2r	.
4D	.	4F	.	4B-y	.	.	.
[2E-X	-re-	[2G	-re-	2c	-re,	2g	mi-
=130	=130	=130	=130	=130	=130	=130	=130
2E-]	.	2G]	.	4r	.	2g	-se-
*	*	*	*	*	*edit	*	*
.	.	.	.	4.e-i	mi-	.	.
2E-i	-re	2G	-re	.	.	2b-y	-re
.	.	.	.	8f	.	.	.
.	.	.	.	[4g	-se-	.	.
=131	=131	=131	=131	=131	=131	=131	=131
1E-i	no-	1G	no-	8gL]	.	4b-y	re
.	.	.	.	8f	.	.	.
.	.	.	.	8e-i	-re-	4.cc	no-
.	.	.	.	8dJ	.	.	.
.	.	.	.	2c	-re	.	.
.	.	.	.	.	.	8b-yL	.
.	.	.	.	.	.	8a	.
.	.	.	.	.	.	8gJ	.
=132	=132	=132	=132	=132	=132	=132	=132
*	*	*lig	*	*	*	*	*
*	*	*	*	*	*Xedit	*	*
*	*	*	*	*col	*	*	*
1D	-bis.	[1A	-bis.	2.d	no-	1f#X	-bis.
.	.	.	.	4c	.	.	.
*	*	*	*	*Xcol	*	*	*
=133	=133	=133	=133	=133	=133	=133	=133
2D	Quo-	1A_	.	2A	-bis.	2f#i	Quo-
[2D	-ni-	.	.	4r	.	2f#i	-ni-
.	.	.	.	[4d	Quo-	.	.
!!LO:LB:g=original
=134	=134	=134	=134	=134	=134	=134	=134
2D]	.	1A]	.	4d]	.	4f#i	-am
.	.	.	.	8cL	.	2g	tu
.	.	.	.	8B-yJ	.	.	.
2D	-am	.	.	2A	-ni-	.	.
.	.	.	.	.	.	4f#i	.
=135	=135	=135	=135	=135	=135	=135	=135
1GG	tu	[1B-y	.	1G	-am	2.g	so-
.	.	.	.	.	.	4f	.
=136	=136	=136	=136	=136	=136	=136	=136
2.G	so-	1B-]	.	1r	.	2d	.
.	.	.	.	.	.	2d	-lus
4F	.	.	.	.	.	.	.
*	*	*Xlig	*	*	*	*	*
=137	=137	=137	=137	=137	=137	=137	=137
2D	.	1r	.	4.d	tu	2f	san-
.	.	.	.	8e-j	.	.	.
*	*	*	*	*col	*	*	*
*col	*	*	*	*	*	*	*
4.BB-y	-lus	.	.	4.f	.	2d	.
8C	.	.	.	8e-j	.	.	.
*Xcol	*	*	*	*Xcol	*	*	*
=138	=138	=138	=138	=138	=138	=138	=138
4D	.	1r	.	4f	.	2B-y	.
2E-i	.	.	.	2g	so-	.	.
.	.	.	.	.	.	2c	.
8DL	.	.	.	8fL	.	.	.
8CJ	.	.	.	8e-jJ	.	.	.
=139	=139	=139	=139	=139	=139	=139	=139
4BB-y	.	1r	.	2d	-lus	4d	.
2B-y	san-	.	.	.	.	4B-y	.
.	.	.	.	4r	.	2c	.
4A	.	.	.	4e-i	san-	.	.
!!LO:LB:g=original
=140	=140	=140	=140	=140	=140	=140	=140
4B-y	.	1r	.	4d	.	4B-y	.
4G	.	.	.	4B-y	.	2b-y	.
2F	.	.	.	2c	.	.	.
.	.	.	.	.	.	4a	.
=141	=141	=141	=141	=141	=141	=141	=141
*	*	*lig	*	*	*	*	*
*	*	*	*Xedit	*	*	*	*
1BB-y	-ctus.	[1d	Tu-	1B-y	-ctus.	1b-y	-ctus.
=142	=142	=142	=142	=142	=142	=142	=142
2BB-y	Tu	1d_	.	2f	Tu	2b-y	Tu
2BB-y	so-	.	.	2f	so-	2b-y	so-
=143	=143	=143	=143	=143	=143	=143	=143
2BB-y	-lus	1d_	.	2f	-lus	2.b-y	-lus
2BB-y	Do-	.	.	4.d	.	.	.
.	.	.	.	.	.	4a	.
.	.	.	.	8c	.	.	.
=144	=144	=144	=144	=144	=144	=144	=144
*	*	*	*	*lig	*	*	*
2.D	.	1d]	.	2A	Do-	2.f	Do-
.	.	.	.	2B-y	.	.	.
4E-i	.	.	.	.	.	4g	.
*	*	*	*	*Xlig	*	*	*
=145	=145	=145	=145	=145	=145	=145	=145
2.F	.	[1c	-so-	2.A	.	2.a	.
4E-i	.	.	.	4B-y	.	4f	.
!!LO:LB:g=original
=146	=146	=146	=146	=146	=146	=146	=146
*	*	*	*	*	*	*lig	*
2C	.	1c]	.	2c	.	2g	.
*lig	*	*	*	*	*	*	*
2F	.	.	.	2A	.	[2a	.
*	*	*	*	*	*	*Xlig	*
*	*	*Xlig	*	*	*	*	*
=147	=147	=147	=147	=147	=147	=147	=147
*	*	*lig	*	*	*	*	*
2G	.	1B-y	-lus	2d	.	4a]	.
.	.	.	.	.	.	4g	.
*Xlig	*	*	*	*	*	*	*
*	*	*	*	*	*	*col	*
2E-X	-mi-	.	.	2e-X	.	[2g	.
=148	=148	=148	=148	=148	=148	=148	=148
*lig	*	*	*	*	*	*	*
1F	-nus.	1A	Do-	4d	.	4g]	.
.	.	.	.	2c	-mi-	4f	.
*	*	*	*	*	*	*Xcol	*
.	.	.	.	.	.	[2f	-mi-
.	.	.	.	4B-y	.	.	.
*	*	*Xlig	*	*	*	*	*
=149	=149	=149	=149	=149	=149	=149	=149
1C	.	1G	-mi-	1c	-nus.	2f]	.
.	.	.	.	.	.	2e	.
*	*	*lig	*	*	*	*	*
*Xlig	*	*	*	*	*	*	*
=150	=150	=150	=150	=150	=150	=150	=150
1D	Tu	1F	-nus.	2A	Tu	1f	-nus.
.	.	.	.	4F	.	.	.
.	.	.	.	[4B-y	so-	.	.
*	*	*Xlig	*	*	*	*	*
=151	=151	=151	=151	=151	=151	=151	=151
*	*	*	*	*	*	*	*edit
2BB-y	so-	1r	.	4B-]	.	2d	Tu
.	.	.	.	8AL	.	.	.
.	.	.	.	8GJ	.	.	.
4C	-lus	.	.	4A	-lus	4c	.
4BB-y	.	.	.	[4B-y	Al-	[4d	so-
=152	=152	=152	=152	=152	=152	=152	=152
*	*edit	*	*	*	*	*	*
4GG	Al-	1r	.	4B-]	.	4d]	.
4BB-y	.	.	.	2G	-tis-	4B-y	.
4C	-tis-	.	.	.	.	2A	.
4D	-si-	.	.	4F#i	-si-	.	.
!!LO:PB:g=original
=153	=153	=153	=153	=153	=153	=153	=153
*	*	*lig	*	*	*	*	*
*	*	*	*edit	*	*	*	*
[1GG	-mus,	1G	Tu	2G	-mus,	2G	-lus
.	.	.	.	2r	.	2g	Al-
=154	=154	=154	=154	=154	=154	=154	=154
*	*	*	*	*	*edit	*	*
1GG]	.	[1B-y	so-	2.G	tu	1g	-tis-
.	.	.	.	4A	.	.	.
=155	=155	=155	=155	=155	=155	=155	=155
*lig	*	*	*	*	*	*	*
1G	tu	2B-]	.	4B-y	.	2g	-si-
.	.	.	.	4c	.	.	.
.	.	[2G	-lus	2d	.	2g	-mus,
=156	=156	=156	=156	=156	=156	=156	=156
*	*	*	*	*	*	*	*Xedit
1E-X	.	1G]	.	4.e-i	so-	2.b-y	tu
*	*	*Xlig	*	*	*	*	*
.	.	.	.	8d	.	.	.
.	.	.	.	4.B-y	.	.	.
.	.	.	.	.	.	4a	.
.	.	.	.	8c	.	.	.
*Xlig	*	*	*	*	*	*	*
=157	=157	=157	=157	=157	=157	=157	=157
*	*	*lig	*	*	*	*	*
1D	so-	1A	Al-	2d	.	2f	.
.	.	.	.	2D	.	2f	so-
=158	=158	=158	=158	=158	=158	=158	=158
1GG	-lus	[1B-y	.	1D	-lus	1g	-lus
=159	=159	=159	=159	=159	=159	=159	=159
*	*	*	*	*	*	*col	*
1r	.	2B-]	.	2G	Al-	4.d	Al-
*	*	*Xlig	*	*	*	*	*
.	.	.	.	.	.	8e	.
*	*	*	*	*	*	*Xcol	*
.	.	4d	-tis-	4D	.	4f	.
.	.	[4e	.	[4C	-tis-	[4g	-tis-
!!LO:LB:g=original
=160	=160	=160	=160	=160	=160	=160	=160
2r	.	4e]	.	4C]	.	8gL]	.
.	.	.	.	.	.	8f	.
.	.	2d	-si-	4D	.	8e	.
.	.	.	.	.	.	8dJ	.
*	*Xedit	*	*	*	*	*	*
2AA	Al-	.	.	2A	-si-	2e	-si-
.	.	4c#i	.	.	.	.	.
=161	=161	=161	=161	=161	=161	=161	=161
*	*	*lig	*	*	*	*	*
2.BB-y	-tis-	[1d	-mus,	2D	-mus,	2d	-mus,
.	.	.	.	2r	.	2r	.
4C	.	.	.	.	.	.	.
=162	=162	=162	=162	=162	=162	=162	=162
*	*	*	*	*	*Xedit	*	*edit
2D	-si-	1d_	.	2A	Je-	2f	Je-
2GG	-mus,	.	.	2B-y	-su	2g	-su
=163	=163	=163	=163	=163	=163	=163	=163
*	*	*	*	*	*edit	*	*
2G	Je-	1d]	.	2G	Chri-	2b-y	Chri-
[2F	-su	.	.	2A	-ste,	2a	-ste,
=164	=164	=164	=164	=164	=164	=164	=164
*	*	*	*	*	*	*	*Xedit
4F]	.	1c	.	2r	.	2.cc	Je-
4E-i	.	.	.	.	.	.	.
2C	.	.	.	[2G	Je-	.	.
.	.	.	.	.	.	4b-y	.
*	*	*Xlig	*	*	*	*	*
=165	=165	=165	=165	=165	=165	=165	=165
2.E-X	Chri-	4.B-y	Je-	4G]	.	2.g	-su
.	.	.	.	4.B-y	-su	.	.
.	.	8A	.	.	.	.	.
.	.	4G	.	.	.	.	.
.	.	.	.	8c	.	.	.
*	*	*	*	*	*Xedit	*	*
4D	.	4F	-su	[4d	Chri-	[4a	Chri-
=166	=166	=166	=166	=166	=166	=166	=166
*	*	*lig	*	*	*	*	*
2E-i	.	2G	Chri-	4d]	.	4a]	.
.	.	.	.	4c	.	2g	.
2D	.	2A	.	2d	-ste.	.	.
.	.	.	.	.	.	4f#i	.
*	*	*Xlig	*	*	*	*	*
!!LO:LB:g=original
=167	=167	=167	=167	=167	=167	=167	=167
*M3/2	*	*M3/2	*	*M3/2	*	*M3/2	*
*met(O)	*	*met(O)	*	*met(O)	*	*met(O)	*
[1.GG	-ste.	1.G	-ste.	1.r	.	1.g	-ste.
=168	=168	=168	=168	=168	=168	=168	=168
1.GG]	.	1.r	.	2G	Cum	1.r	.
.	.	.	.	2G	san-	.	.
.	.	.	.	2G	-cto	.	.
=169	=169	=169	=169	=169	=169	=169	=169
1.r	.	1.r	.	1B-y	Spi-	2g	Cum
.	.	.	.	.	.	2g	San-
.	.	.	.	2B-y	-ri-	2g	-cto
=170	=170	=170	=170	=170	=170	=170	=170
*	*	*	*	*	*	*	*edit
1G	Cum	1.r	.	2.G	-tu,	1b-y	Spi-
.	.	.	.	4A	.	.	.
2G	San-	.	.	2B-y	.	2b-y	-ri-
=171	=171	=171	=171	=171	=171	=171	=171
*	*	*	*Xedit	*	*	*	*
2B-y	-cto	1G	Cum	2.E-X	.	2.g	-tu,
2B-y	Spi-	.	.	.	.	.	.
.	.	.	.	4F	.	4f	.
2B-y	-ri-	2G	San-	2G	.	2d	.
=172	=172	=172	=172	=172	=172	=172	=172
*	*	*	*	*	*edit	*	*
2.G	-tu,	1B-y	-cto	1d	cum	1g	.
4A	.	.	.	.	.	.	.
2B-y	.	2B-y	Spi-	2d	San-	2f	cum
!!LO:LB:g=original
=173	=173	=173	=173	=173	=173	=173	=173
*	*	*	*	*lig	*	*lig	*
1E-i	.	1G	-ri-	2e-i	-cto	2g	San-
.	.	.	.	2.g	.	2b-y	.
*	*edit	*	*	*	*	*Xlig	*
2C	cum	2A	.	.	.	2cc	-cto
*	*	*	*	*Xlig	*	*	*
.	.	.	.	4f	.	.	.
=174	=174	=174	=174	=174	=174	=174	=174
*	*	*lig	*	*	*	*	*
*	*	*	*	*	*	*	*Xedit
2.BB-y	San-	2B-y	.	2d	.	2.dd	Spi-
.	.	1d	.	1f	Spi-	.	.
4C	.	.	.	.	.	4cc	.
4D	.	.	.	.	.	2b-y	.
4E-i	.	.	.	.	.	.	.
*	*	*Xlig	*	*	*	*	*
=175	=175	=175	=175	=175	=175	=175	=175
*	*	*	*	*lig	*	*	*
2F	.	1c	.	2c	-ri-	2a	.
1E-X	-cto	.	.	1e-i	.	2.g	.
.	.	2B-y	.	.	.	.	.
.	.	.	.	.	.	4f	.
*	*	*	*	*Xlig	*	*	*
=176	=176	=176	=176	=176	=176	=176	=176
*	*	*lig	*	*	*	*	*
2F	Spi-	2A	.	1.c	-tu,	1f	-ri-
1C	-ri-	1G	.	.	.	.	.
.	.	.	.	.	.	2e	.
*	*	*Xlig	*	*	*	*	*
=177	=177	=177	=177	=177	=177	=177	=177
1D	-tu,	1.F	-tu,	1A	Spi-	1.f	-tu,
2r	.	.	.	2F	-ri-	.	.
=178	=178	=178	=178	=178	=178	=178	=178
*lig	*	*	*	*	*	*	*
*	*Xedit	*	*	*	*	*	*
2GG	in	1.r	.	2G	.	2r	.
1BB-y	.	.	.	1D	-tu,	2r	.
*	*	*	*	*	*	*	*edit
.	.	.	.	.	.	2f	Spi-
*Xlig	*	*	*	*	*	*	*
!!LO:PB:g=original
=179	=179	=179	=179	=179	=179	=179	=179
*	*	*	*	*	*Xedit	*	*
*col	*	*	*	*	*	*	*
1GG	.	1.r	.	2G	in	2g	-ri-
.	.	.	.	1B-y	.	1d	-tu,
*lig	*	*	*	*	*	*	*
[2G	glo-	.	.	.	.	.	.
=180	=180	=180	=180	=180	=180	=180	=180
*	*	*	*	*	*	*lig	*
*	*	*	*	*	*	*	*Xedit
2G]	.	1.r	.	2.G	glo-	2g	in
1E-i	.	.	.	.	.	1b-y	.
*Xcol	*	*	*	*	*	*	*
.	.	.	.	4A	.	.	.
.	.	.	.	4B-y	.	.	.
.	.	.	.	8cL	.	.	.
.	.	.	.	8dJ	.	.	.
*Xlig	*	*	*	*	*	*Xlig	*
=181	=181	=181	=181	=181	=181	=181	=181
*lig	*	*lig	*	*	*	*	*
2E-i	-ri-	2G	in	2e-i	-ri-	1g	glo-
1BB-y	.	1B-y	.	1d	-a	.	.
.	.	.	.	.	.	2f	-ri-
*Xlig	*	*Xlig	*	*	*	*	*
=182	=182	=182	=182	=182	=182	=182	=182
*	*	*	*	*	*	*lig	*
1E-i	-a	1G	glo-	2.g	De-	2g	-a
.	.	.	.	.	.	2b-y	.
.	.	.	.	4f	.	.	.
*	*	*	*	*	*	*Xlig	*
2C	De	2A	-ri-	2e-i	.	2cc	.
=183	=183	=183	=183	=183	=183	=183	=183
1BB-y	i	2B-y	-a	2d	-i	1dd	De-
.	.	1d	De-	1f	Pa-	.	.
2D	.	.	.	.	.	2b-y	-i
=184	=184	=184	=184	=184	=184	=184	=184
*lig	*	*	*	*	*	*	*
2E-i	Pa-	2c	-i	2.e-X	.	2.cc	Pa-
1C	.	1e-X	Pa-	.	.	.	.
.	.	.	.	4d	.	4b-y	.
.	.	.	.	4c	.	4a	.
.	.	.	.	4B-y	.	4g	.
*Xlig	*	*	*	*	*	*	*
!!LO:LB:g=original
=185	=185	=185	=185	=185	=185	=185	=185
1D	-tris.	2.d	-tris.	2A	.	1f	-tris.
.	.	.	.	2.d	.	.	.
.	.	4c	.	.	.	.	.
2G	A-	2B-y	.	.	.	2g	A-
.	.	.	.	4e	.	.	.
=186	=186	=186	=186	=186	=186	=186	=186
*	*	*lig	*	*lig	*	*	*
*	*	*	*	*col	*	*	*
2F	.	2A	.	2f	.	2a	.
1G	.	2G	.	2d	.	2.b-y	.
*	*	*Xlig	*	*	*	*	*
.	.	2B-y	.	[2e-i	.	.	.
.	.	.	.	.	.	4a	.
=187	=187	=187	=187	=187	=187	=187	=187
2C	.	2c	.	2e-]	.	1g	.
*	*	*	*	*Xlig	*	*	*
1D	.	1A	A-	1d	-tris.	.	.
*	*	*	*	*Xcol	*	*	*
.	.	.	.	.	.	2f#i	.
=188	=188	=188	=188	=188	=188	=188	=188
2.E-X	.	[1.Gl	-men.	2.B-y	A-	[1.gl	-men.
4D	.	.	.	4c	.	.	.
2C	.	.	.	2e-i	.	.	.
=189	=189	=189	=189	=189	=189	=189	=189
2BB-y	.	1.G_	.	2d	.	1.g_	.
1C	.	.	.	4c	.	.	.
.	.	.	.	2c	.	.	.
.	.	.	.	8B-yL	.	.	.
.	.	.	.	8AJ	.	.	.
=190	=190	=190	=190	=190	=190	=190	=190
[1.GGl	-men.	1.G_	.	2.B-y	.	1.g_	.
.	.	.	.	4A	.	.	.
.	.	.	.	4G	.	.	.
.	.	.	.	8FL	.	.	.
.	.	.	.	8E-iJ	.	.	.
=191	=191	=191	=191	=191	=191	=191	=191
1.GG]	.	1.G]	.	1.Dl	-men.	1.g]	.
==	==	==	==	==	==	==	==
*-	*-	*-	*-	*-	*-	*-	*-
!!!system-decoration: [*]
!!!YEM: ©2016 American Institute of Musicology
!!!RDF**kern: j = editorial accidental, optional, paren up
!!!RDF**kern: i = editorial accidental
!!!RDF**kern: l = terminal long
!!!PTL: Gaspar van Weerbeke: Collected Works. II. Masses, Part 2
!!!PPR: American Institute of Musicology
!!!PC#: Corpus Mensurabilis Musicae 106/II.2
!!!PDT: 2018
!!!PED: Kolb, Paul
!!!YEC: Copyright 2016, Kolb, Paul
!!!YEM: CC-BY-NC 4.0 (https://creativecommons.org/licenses/by-nc/4.0/legalcode)
!!!EED: Zybina, Karina
!!!EEV: 2021/10/03
!!!title: @{OPR} &mdash; @{OTL}
